images/ic_token_iusdc.svg

<svg height="250" viewBox="0 0 250 250" width="250" xmlns="http://www.w3.org/2000/svg"><path d="m249.800781 125.238281c.109375-68.902343-55.675781-124.867187-124.601562-125-68.929688-.132812-124.894531 55.617188-125 124.519531-.1093752 68.90625 55.675781 124.871094 124.601562 125 68.929688.132813 124.894531-55.613281 125-124.519531zm0 0" fill="#3574b9"/><g fill="#fff"><path d="m104.78125 202.925781c0 2.8125-1.832031 3.800781-4.585938 3.800781-16.660156-5.515624-31.203124-16.433593-41.511718-31.164062-10.3125-14.730469-15.855469-32.511719-15.828125-50.753906.03125-18.246094 5.632812-36.003906 15.992187-50.699219s24.941406-25.558594 41.617188-31.011719c2.699218-.929687 4.585937.957032 4.558594 3.828125v6.785157c.023437.976562-.21875 1.9375-.695313 2.78125-.476563.839843-1.171875 1.523437-2 1.976562-13.121094 4.929688-24.464844 13.957031-32.496094 25.855469-8.03125 11.898437-12.355469 26.089843-12.382812 40.640625-.03125 14.554687 4.234375 28.765625 12.21875 40.699218 7.980469 11.933594 19.289062 21.011719 32.390625 26 .832031.449219 1.527344 1.132813 2.003906 1.972657.476562.84375.714844 1.804687.691406 2.785156zm0 0"/><path d="m132.1875 179.273438c-.03125 1.011718-.421875 1.976562-1.09375 2.703124-.675781.730469-1.582031 1.171876-2.550781 1.238282h-7.308594c-.949219-.066406-1.84375-.492188-2.511719-1.195313-.671875-.703125-1.070312-1.640625-1.128906-2.632812v-11.261719c-14.617188-1.941406-21.902344-10.5-24.625-22.886719 0-1.886719.941406-3.800781 2.695312-3.800781h8.226563c1.808594 0 2.699219.957031 3.644531 2.8125 1.804688 6.675781 5.390625 12.390625 17.316406 12.417969 9.113282 0 15.507813-4.730469 15.535157-12.332031.027343-7.601563-3.640625-10.472657-16.398438-12.414063-19.179687-2.816406-28.296875-8.617187-28.269531-24.777344 0-12.359375 9.171875-21.875 21.957031-23.730469v-11.65625c.058594-.988281.457031-1.921874 1.128907-2.621093.671874-.703125 1.566406-1.121094 2.511718-1.179688h7.308594c.949219.058594 1.839844.476563 2.511719 1.179688.671875.699219 1.074219 1.632812 1.128906 2.621093v11.429688c10.953125 1.914062 18.234375 8.585938 20.042969 19.058594 0 1.886718-.917969 3.800781-2.699219 3.800781h-7.253906c-1.835938 0-2.699219-.957031-3.640625-2.816406-1.808594-6.671875-6.367188-9.542969-14.59375-9.542969-9.117188 0-13.703125 4.730469-13.703125 11.261719s2.699219 10.472656 16.402343 12.417969c19.148438 2.8125 28.265626 8.613281 28.238282 24.773437 0 12.359375-9.144532 22.804687-22.84375 25.648437zm0 0"/><path d="m144.917969 203.09375c0 2.84375 1.859375 4.757812 4.558593 3.800781 16.675782-5.464843 31.253907-16.328125 41.621094-31.015625 10.367188-14.691406 15.988282-32.441406 16.046875-50.6875.050781-38.035156-24.519531-70.441406-57.34375-81.925781-2.753906 0-4.585937.984375-4.585937 3.800781v6.671875c-.023438.976563.21875 1.941407.695312 2.78125.476563.839844 1.171875 1.523438 2 1.976563 13.097656 4.988281 24.40625 14.070312 32.386719 26.003906 7.980469 11.9375 12.242187 26.148438 12.210937 40.703125s-4.359374 28.742187-12.390624 40.640625c-8.035157 11.894531-19.382813 20.921875-32.503907 25.847656-.828125.445313-1.523437 1.121094-2 1.960938-.476562.835937-.71875 1.792968-.695312 2.769531zm0 0"/></g></svg>

<svg xmlns="http://www.w3.org/2000/svg" xmlns:xlink="http://www.w3.org/1999/xlink" width="250px" height="250px" viewBox="0 0 250 250" version="1.1">
<g id="surface1">
<path style=" stroke:none;fill-rule:nonzero;fill:rgb(20.784314%,45.490196%,72.549021%);fill-opacity:1;" d="M 249.800781 125.238281 C 249.910156 56.335938 194.125 0.371094 125.199219 0.238281 C 56.269531 0.105469 0.304688 55.855469 0.199219 124.757812 C 0.0898438 193.664062 55.875 249.628906 124.800781 249.757812 C 193.730469 249.890625 249.695312 194.144531 249.800781 125.238281 Z M 249.800781 125.238281 "/>
<path style=" stroke:none;fill-rule:nonzero;fill:rgb(100%,100%,100%);fill-opacity:1;" d="M 104.78125 202.925781 C 104.78125 205.738281 102.949219 206.726562 100.195312 206.726562 C 83.535156 201.210938 68.992188 190.292969 58.683594 175.5625 C 48.371094 160.832031 42.828125 143.050781 42.855469 124.808594 C 42.886719 106.5625 48.488281 88.804688 58.847656 74.109375 C 69.207031 59.414062 83.789062 48.550781 100.464844 43.097656 C 103.164062 42.167969 105.050781 44.054688 105.023438 46.925781 L 105.023438 53.710938 C 105.046875 54.6875 104.804688 55.648438 104.328125 56.492188 C 103.851562 57.332031 103.15625 58.015625 102.328125 58.46875 C 89.207031 63.398438 77.863281 72.425781 69.832031 84.324219 C 61.800781 96.222656 57.476562 110.414062 57.449219 124.964844 C 57.417969 139.519531 61.683594 153.730469 69.667969 165.664062 C 77.648438 177.597656 88.957031 186.675781 102.058594 191.664062 C 102.890625 192.113281 103.585938 192.796875 104.0625 193.636719 C 104.539062 194.480469 104.777344 195.441406 104.753906 196.421875 Z M 104.78125 202.925781 "/>
<path style=" stroke:none;fill-rule:nonzero;fill:rgb(100%,100%,100%);fill-opacity:1;" d="M 132.1875 179.273438 C 132.15625 180.285156 131.765625 181.25 131.09375 181.976562 C 130.417969 182.707031 129.511719 183.148438 128.542969 183.214844 L 121.234375 183.214844 C 120.285156 183.148438 119.390625 182.722656 118.722656 182.019531 C 118.050781 181.316406 117.652344 180.378906 117.59375 179.386719 L 117.59375 168.125 C 102.976562 166.183594 95.691406 157.625 92.96875 145.238281 C 92.96875 143.351562 93.910156 141.4375 95.664062 141.4375 L 103.890625 141.4375 C 105.699219 141.4375 106.589844 142.394531 107.535156 144.25 C 109.339844 150.925781 112.925781 156.640625 124.851562 156.667969 C 133.964844 156.667969 140.359375 151.9375 140.386719 144.335938 C 140.414062 136.734375 136.746094 133.863281 123.988281 131.921875 C 104.808594 129.105469 95.691406 123.304688 95.71875 107.144531 C 95.71875 94.785156 104.890625 85.269531 117.675781 83.414062 L 117.675781 71.757812 C 117.734375 70.769531 118.132812 69.835938 118.804688 69.136719 C 119.476562 68.433594 120.371094 68.015625 121.316406 67.957031 L 128.625 67.957031 C 129.574219 68.015625 130.464844 68.433594 131.136719 69.136719 C 131.808594 69.835938 132.210938 70.769531 132.265625 71.757812 L 132.265625 83.1875 C 143.21875 85.101562 150.5 91.773438 152.308594 102.246094 C 152.308594 104.132812 151.390625 106.046875 149.609375 106.046875 L 142.355469 106.046875 C 140.519531 106.046875 139.65625 105.089844 138.714844 103.230469 C 136.90625 96.558594 132.347656 93.6875 124.121094 93.6875 C 115.003906 93.6875 110.417969 98.417969 110.417969 104.949219 C 110.417969 111.480469 113.117188 115.421875 126.820312 117.367188 C 145.96875 120.179688 155.085938 125.980469 155.058594 142.140625 C 155.058594 154.5 145.914062 164.945312 132.214844 167.789062 Z M 132.1875 179.273438 "/>
<path style=" stroke:none;fill-rule:nonzero;fill:rgb(100%,100%,100%);fill-opacity:1;" d="M 144.917969 203.09375 C 144.917969 205.9375 146.777344 207.851562 149.476562 206.894531 C 166.152344 201.429688 180.730469 190.566406 191.097656 175.878906 C 201.464844 161.1875 207.085938 143.4375 207.144531 125.191406 C 207.195312 87.15625 182.625 54.75 149.800781 43.265625 C 147.046875 43.265625 145.214844 44.25 145.214844 47.066406 L 145.214844 53.738281 C 145.191406 54.714844 145.433594 55.679688 145.910156 56.519531 C 146.386719 57.359375 147.082031 58.042969 147.910156 58.496094 C 161.007812 63.484375 172.316406 72.566406 180.296875 84.5 C 188.277344 96.4375 192.539062 110.648438 192.507812 125.203125 C 192.476562 139.757812 188.148438 153.945312 180.117188 165.84375 C 172.082031 177.738281 160.734375 186.765625 147.613281 191.691406 C 146.785156 192.136719 146.089844 192.8125 145.613281 193.652344 C 145.136719 194.488281 144.894531 195.445312 144.917969 196.421875 Z M 144.917969 203.09375 "/>
</g>
</svg>
